X:702
T:Aoife O'Keeffe's Cape Breton
R:strathspey
C:Paul M. MacDonald
O:20th Century Cape Breton
D:The Lighthouse, Cranford Publications
B:The Lighthouse Collection, ISBN 0-9691181-5-5
N:Contacts ...
N:..... Cranford Publications <http://www.cranfordpub.com>
N:Copyrights .... <paulmac@cranfordpub.com>
Z:This abc transcription is for personal use only,
Z:provided this notice remains attached.
Z:Used by permission of the composer and publisher.
Z:Paul Stewart Cranford <psc@cranfordpub.com>
Q:244
L:1/8
M:C
K:A
(3CEA c>B A<F E2|F<B B2 d>cB<F|(3CEA c>B A<F E>f|e>cd>B c<A A2:|!
|:c<e e2 d<f e2|F>Bd>c B<FF>f|e>cd>B c<ea>g|b>ae>d c<A A2:|!
8


